src/Assets/icons/users.svg

<svg class="svg-icon" viewBox="0 0 24 24" fill="currentColor" xmlns="http://www.w3.org/2000/svg">
<rect width="24" height="24" fill="white"/>
<path fill-rule="evenodd" clip-rule="evenodd" d="M5 9.5C5 7.01472 7.01472 5 9.5 5C11.9853 5 14 7.01472 14 9.5C14 11.9853 11.9853 14 9.5 14C7.01472 14 5 11.9853 5 9.5Z" fill="#323232"/>
<path d="M14.3675 12.0632C14.322 12.1494 14.3413 12.2569 14.4196 12.3149C15.0012 12.7454 15.7209 13 16.5 13C18.433 13 20 11.433 20 9.5C20 7.567 18.433 6 16.5 6C15.7209 6 15.0012 6.2546 14.4196 6.68513C14.3413 6.74313 14.322 6.85058 14.3675 6.93679C14.7714 7.70219 15 8.5744 15 9.5C15 10.4256 14.7714 11.2978 14.3675 12.0632Z" fill="#323232"/>
<path fill-rule="evenodd" clip-rule="evenodd" d="M4.64115 15.6993C5.87351 15.1644 7.49045 15 9.49995 15C11.5112 15 13.1293 15.1647 14.3621 15.7008C15.705 16.2847 16.5212 17.2793 16.949 18.6836C17.1495 19.3418 16.6551 20 15.9738 20H3.02801C2.34589 20 1.85045 19.3408 2.05157 18.6814C2.47994 17.2769 3.29738 16.2826 4.64115 15.6993Z" fill="#323232"/>
<path d="M14.8185 14.0364C14.4045 14.0621 14.3802 14.6183 14.7606 14.7837V14.7837C15.803 15.237 16.5879 15.9043 17.1508 16.756C17.6127 17.4549 18.33 18 19.1677 18H20.9483C21.6555 18 22.1715 17.2973 21.9227 16.6108C21.9084 16.5713 21.8935 16.5321 21.8781 16.4932C21.5357 15.6286 20.9488 14.9921 20.0798 14.5864C19.2639 14.2055 18.2425 14.0483 17.0392 14.0008L17.0194 14H16.9997C16.2909 14 15.5506 13.9909 14.8185 14.0364Z" fill="#323232"/>
</svg>

<svg class="svg-icon" viewBox="0 0 24 24" fill="currentColor" xmlns="http://www.w3.org/2000/svg"><path fill-rule="evenodd" clip-rule="evenodd" d="M5 9.5a4.5 4.5 0 1 1 9 0 4.5 4.5 0 0 1-9 0Z"/><path d="M14.367 12.063a.197.197 0 0 0 .053.252 3.5 3.5 0 1 0 0-5.63.197.197 0 0 0-.053.252c.404.765.633 1.637.633 2.563 0 .926-.229 1.798-.633 2.563Z"/><path fill-rule="evenodd" clip-rule="evenodd" d="M4.641 15.7c1.233-.536 2.85-.7 4.859-.7 2.011 0 3.63.165 4.862.7 1.343.585 2.16 1.58 2.587 2.984A1.02 1.02 0 0 1 15.974 20H3.028a1.02 1.02 0 0 1-.976-1.319c.428-1.404 1.245-2.398 2.59-2.982Z"/><path d="M14.819 14.036c-.415.026-.439.582-.058.748 1.042.453 1.827 1.12 2.39 1.972.462.699 1.179 1.244 2.017 1.244h1.78c.707 0 1.224-.703.975-1.39a3.412 3.412 0 0 0-1.843-2.024c-.816-.38-1.837-.538-3.04-.585L17.02 14H17c-.71 0-1.45-.01-2.181.036Z"/></svg>
